X:10
T:Rég megmondtam bús gerlice
L:1/4
K:F
f>e d<d | d d d A |
d<d A<A | A<A d d |
c>B A<G | G G A F |
F>G A<A | A A d d |
c>B A<G | G G A F |
D/E/F/A/ G/F/E/C/ | D<D D z |

